packages/dnb-ui-lib/assets/icons/location_medium.svg

<svg width="24" height="24" viewBox="0 0 24 24" fill="none" xmlns="http://www.w3.org/2000/svg">
<path d="M10 22.25C9.58579 22.25 9.25 22.5858 9.25 23C9.25 23.4142 9.58579 23.75 10 23.75V22.25ZM14 23.75C14.4142 23.75 14.75 23.4142 14.75 23C14.75 22.5858 14.4142 22.25 14 22.25V23.75ZM18.4056 10.6849L19.0638 11.0443L19.0787 11.0171L19.0912 10.9887L18.4056 10.6849ZM13.9144 18.9107L14.5619 19.2892L14.5674 19.2797L14.5727 19.2701L13.9144 18.9107ZM10.0792 18.8997L9.42081 19.259L9.42622 19.2689L9.43192 19.2786L10.0792 18.8997ZM5.57823 10.652L4.89208 10.9548L4.9048 10.9836L4.91989 11.0112L5.57823 10.652ZM10 23.75H14V22.25H10V23.75ZM13.5 8C13.5 8.82836 12.8284 9.5 12 9.5V11C13.6568 11 15 9.65679 15 8H13.5ZM12 9.5C11.1716 9.5 10.5 8.82836 10.5 8H9C9 9.65679 10.3432 11 12 11V9.5ZM10.5 8C10.5 7.17164 11.1716 6.5 12 6.5V5C10.3432 5 9 6.34321 9 8H10.5ZM12 6.5C12.8284 6.5 13.5 7.17164 13.5 8H15C15 6.34321 13.6568 5 12 5V6.5ZM18.25 7.90215C18.25 8.75341 18.0742 9.58145 17.7199 10.381L19.0912 10.9887C19.529 10.0011 19.75 8.96628 19.75 7.90215H18.25ZM17.7473 10.3255L13.2561 18.5513L14.5727 19.2701L19.0638 11.0443L17.7473 10.3255ZM13.2669 18.5322C13.0117 18.9689 12.5343 19.25 12 19.25V20.75C13.0652 20.75 14.0366 20.1878 14.5619 19.2892L13.2669 18.5322ZM12 19.25C11.4689 19.25 10.9901 18.9713 10.7264 18.5208L9.43192 19.2786C9.96304 20.1859 10.9328 20.75 12 20.75V19.25ZM10.7375 18.5404L6.23658 10.2927L4.91989 11.0112L9.42081 19.259L10.7375 18.5404ZM6.26439 10.3492C5.92666 9.58389 5.75 8.75559 5.75 7.90215H4.25C4.25 8.96442 4.47026 9.99895 4.89208 10.9548L6.26439 10.3492ZM5.75 7.90215C5.75 4.5159 8.5365 1.75 12 1.75V0.25C7.7275 0.25 4.25 3.66817 4.25 7.90215H5.75ZM12 1.75C15.4635 1.75 18.25 4.5159 18.25 7.90215H19.75C19.75 3.66817 16.2725 0.25 12 0.25V1.75Z" fill="black"/>
</svg>

<svg width="24" height="24" viewBox="0 0 24 24" fill="none" xmlns="http://www.w3.org/2000/svg"><path d="M10 22.25a.75.75 0 000 1.5v-1.5zm4 1.5a.75.75 0 000-1.5v1.5zm4.406-13.065l.658.36.015-.028.012-.028-.685-.304zm-4.492 8.226l.648.378.005-.01.006-.009-.659-.36zM10.08 18.9l-.658.359.005.01.006.01.647-.38zm-4.5-8.248l-.687.303.013.029.015.027.658-.359zM10 23.75h4v-1.5h-4v1.5zM13.5 8A1.5 1.5 0 0112 9.5V11a3 3 0 003-3h-1.5zM12 9.5A1.5 1.5 0 0110.5 8H9a3 3 0 003 3V9.5zM10.5 8A1.5 1.5 0 0112 6.5V5a3 3 0 00-3 3h1.5zM12 6.5A1.5 1.5 0 0113.5 8H15a3 3 0 00-3-3v1.5zm6.25 1.402c0 .851-.176 1.68-.53 2.479l1.371.608a7.559 7.559 0 00.659-3.087h-1.5zm-.503 2.423l-4.49 8.226 1.316.72 4.49-8.227-1.316-.719zm-4.48 8.207A1.462 1.462 0 0112 19.25v1.5a2.963 2.963 0 002.562-1.46l-1.295-.758zM12 19.25a1.47 1.47 0 01-1.274-.73l-1.294.759A2.969 2.969 0 0012 20.75v-1.5zm-1.262-.71l-4.501-8.247-1.317.718 4.5 8.248 1.318-.719zm-4.474-8.19a6.043 6.043 0 01-.514-2.448h-1.5c0 1.062.22 2.097.642 3.053l1.372-.606zM5.75 7.901C5.75 4.516 8.537 1.75 12 1.75V.25c-4.272 0-7.75 3.418-7.75 7.652h1.5zM12 1.75c3.463 0 6.25 2.766 6.25 6.152h1.5C19.75 3.668 16.273.25 12 .25v1.5z" fill="#000"/></svg>
